assets/images/logo.svg

<?xml version="1.0" encoding="UTF-8" standalone="no"?>
<!-- Created with Inkscape (http://www.inkscape.org/) -->

<svg
   width="48"
   height="48"
   viewBox="0 0 12.7 12.7"
   version="1.1"
   id="svg5"
   sodipodi:docname="logo-transparent.svg"
   inkscape:version="1.2.2 (b0a8486541, 2022-12-01)"
   xmlns:inkscape="http://www.inkscape.org/namespaces/inkscape"
   xmlns:sodipodi="http://sodipodi.sourceforge.net/DTD/sodipodi-0.dtd"
   xmlns="http://www.w3.org/2000/svg"
   xmlns:svg="http://www.w3.org/2000/svg">
  <sodipodi:namedview
     id="namedview7"
     pagecolor="#ffffff"
     bordercolor="#000000"
     borderopacity="0.25"
     inkscape:showpageshadow="2"
     inkscape:pageopacity="0.0"
     inkscape:pagecheckerboard="0"
     inkscape:deskcolor="#d1d1d1"
     inkscape:document-units="mm"
     showgrid="false"
     inkscape:zoom="16.388211"
     inkscape:cx="29.380875"
     inkscape:cy="22.394146"
     inkscape:window-width="2560"
     inkscape:window-height="1371"
     inkscape:window-x="0"
     inkscape:window-y="0"
     inkscape:window-maximized="1"
     inkscape:current-layer="layer1" />
  <defs
     id="defs2" />
  <g
     inkscape:label="Ebene 1"
     inkscape:groupmode="layer"
     id="layer1">
    <circle
       style="fill:none;stroke:#000000;stroke-width:0.6;stroke-linecap:round;stroke-linejoin:round;stroke-dasharray:none;paint-order:markers stroke fill"
       id="path788"
       cx="6.3499999"
       cy="6.3499999"
       r="5.3000002" />
    <path
       style="fill:#ffffff;stroke:#000000;stroke-width:0.58141;stroke-linecap:round;stroke-linejoin:round;stroke-dasharray:none;paint-order:markers stroke fill"
       d="M 2.8149615,2.7073088 10.340602,9.517283"
       id="path1112" />
    <path
       style="fill:#ffffff;stroke:#000000;stroke-width:0.600001;stroke-linecap:round;stroke-linejoin:round;stroke-dasharray:none;paint-order:markers stroke fill"
       d="M 1.9072231,4.1152049 9.6093968,10.158507"
       id="path1224" />
    <path
       style="fill:#ffffff;stroke:#000000;stroke-width:0.600001;stroke-linecap:round;stroke-linejoin:round;stroke-dasharray:none;paint-order:markers stroke fill"
       d="M 11.112055,8.0053291 3.4293689,2.2416587"
       id="path1226" />
    <path
       style="fill:#ffffff;stroke:#000000;stroke-width:0.600001;stroke-linecap:round;stroke-linejoin:round;stroke-dasharray:none;paint-order:markers stroke fill"
       d="M 1.3606985,5.8715754 9.3557479,10.470743"
       id="path1228" />
    <path
       style="fill:#ffffff;stroke:#000000;stroke-width:0.646505;stroke-linecap:round;stroke-linejoin:round;stroke-dasharray:none;paint-order:markers stroke fill"
       d="M 8.6755439,10.590713 1.5141175,8.0741773"
       id="path1230" />
    <path
       style="fill:#ffffff;stroke:#000000;stroke-width:0.625902;stroke-linecap:round;stroke-linejoin:round;stroke-dasharray:none;paint-order:markers stroke fill"
       d="M 5.7127357,1.2594378 11.443884,6.8539856"
       id="path1232" />
    <path
       style="fill:#ffffff;stroke:#000000;stroke-width:0.600001;stroke-linecap:round;stroke-linejoin:round;stroke-dasharray:none;paint-order:markers stroke fill"
       d="M 2.9478016,7.0034095 2.8957728,8.2329319"
       id="path1234" />
    <path
       style="fill:#ffffff;stroke:#000000;stroke-width:0.600001;stroke-linecap:round;stroke-linejoin:round;stroke-dasharray:none;paint-order:markers stroke fill"
       d="M 5.1791174,7.9077039 6.1093948,7.4913464"
       id="path1238" />
    <path
       style="fill:#ffffff;stroke:#000000;stroke-width:0.600001;stroke-linecap:round;stroke-linejoin:round;stroke-dasharray:none;paint-order:markers stroke fill"
       d="M 7.4103704,5.5917542 6.9680299,6.2553281"
       id="path1240" />
    <path
       style="fill:#ffffff;stroke:#000000;stroke-width:0.600001;stroke-linecap:round;stroke-linejoin:round;stroke-dasharray:none;paint-order:markers stroke fill"
       d="M 3.6438542,5.2600305 4.4830019,4.590024"
       id="path1242" />
    <path
       style="fill:#ffffff;stroke:#000000;stroke-width:0.600001;stroke-linecap:round;stroke-linejoin:round;stroke-dasharray:none;paint-order:markers stroke fill"
       d="M 7.2216788,4.8371771 6.6231884,2.2740743"
       id="path1244" />
  </g>
</svg>

<svg xmlns="http://www.w3.org/2000/svg" viewBox="0 0 12.7 12.7"><circle cx="6.35" cy="6.35" r="5" style="fill:#fff;stroke:#000;stroke-width:1;stroke-linecap:round;stroke-linejoin:round;stroke-dasharray:none;paint-order:markers stroke fill"/><path d="m2.815 2.707 7.526 6.81" style="fill:#fff;stroke:#000;stroke-width:.58141;stroke-linecap:round;stroke-linejoin:round;stroke-dasharray:none;paint-order:markers stroke fill"/><path d="M1.907 4.115 9.61 10.16M11.112 8.005 3.43 2.242M1.36 5.872l7.996 4.599" style="fill:#fff;stroke:#000;stroke-width:.600001;stroke-linecap:round;stroke-linejoin:round;stroke-dasharray:none;paint-order:markers stroke fill"/><path d="M8.676 10.59 1.514 8.075" style="fill:#fff;stroke:#000;stroke-width:.646505;stroke-linecap:round;stroke-linejoin:round;stroke-dasharray:none;paint-order:markers stroke fill"/><path d="m5.713 1.26 5.73 5.594" style="fill:#fff;stroke:#000;stroke-width:.625902;stroke-linecap:round;stroke-linejoin:round;stroke-dasharray:none;paint-order:markers stroke fill"/><path d="m2.948 7.003-.052 1.23M5.18 7.908l.93-.417M7.41 5.592l-.442.663M3.644 5.26l.839-.67M7.222 4.837l-.599-2.563" style="fill:#fff;stroke:#000;stroke-width:.600001;stroke-linecap:round;stroke-linejoin:round;stroke-dasharray:none;paint-order:markers stroke fill"/></svg>
